X:915
T: Piper's Lord McDonald [The]
T: Tiarna Mac D\'onaill
S: B.Breathnach:"Ceol Rince na hEireann" IV/184
Z: B.Black
N: setting from Jack Wade
L: 1/8
M: 4/4
R: reel
K: G
DG G2 DGBG|c2 Bc AGEG|BG G2 AEGE|DEGA BG G2 :|
Bdde dBGA|Bdeg aged|Bdde dBGB|AcBA BG G2|
Bdde dBGA|Bdeg aged|Bdde gage|dBAc BG G2 ||
